storage/app/icons/phosphoricons/fill/columns-plus-left-fill.svg

<svg xmlns="http://www.w3.org/2000/svg" fill="currentColor" viewBox="0 0 256 256"><path d="M144 48v160a16 16 0 0 1-16 16h-24a16 16 0 0 1-16-16V48a16 16 0 0 1 16-16h24a16 16 0 0 1 16 16m56-16h-24a16 16 0 0 0-16 16v160a16 16 0 0 0 16 16h24a16 16 0 0 0 16-16V48a16 16 0 0 0-16-16M64 120H48v-16a8 8 0 0 0-16 0v16H16a8 8 0 0 0 0 16h16v16a8 8 0 0 0 16 0v-16h16a8 8 0 0 0 0-16"/></svg>

<svg xmlns="http://www.w3.org/2000/svg" viewBox="0 0 256 256" fill="currentColor"><path d="M144,48V208a16,16,0,0,1-16,16H104a16,16,0,0,1-16-16V48a16,16,0,0,1,16-16h24A16,16,0,0,1,144,48Zm56-16H176a16,16,0,0,0-16,16V208a16,16,0,0,0,16,16h24a16,16,0,0,0,16-16V48A16,16,0,0,0,200,32ZM64,120H48V104a8,8,0,0,0-16,0v16H16a8,8,0,0,0,0,16H32v16a8,8,0,0,0,16,0V136H64a8,8,0,0,0,0-16Z"/></svg>
